Newaita-dark/mimetypes/22/application-x-gzpostscript.svg

<?xml version="1.0" encoding="UTF-8"?>
<svg xmlns="http://www.w3.org/2000/svg" xmlns:xlink="http://www.w3.org/1999/xlink" width="22px" height="22px" viewBox="0 0 22 22" version="1.1">
<defs>
<linearGradient id="linear0" gradientUnits="userSpaceOnUse" x1="254" y1="233.5" x2="254" y2="254.666672" gradientTransform="matrix(0.0429729,0,0,0.0429729,-0.00000262285,9.239165)">
<stop offset="0" style="stop-color:rgb(0%,0%,0%);stop-opacity:0.27451;"/>
<stop offset="1" style="stop-color:rgb(0%,0%,0%);stop-opacity:0;"/>
</linearGradient>
<radialGradient id="radial0" gradientUnits="userSpaceOnUse" cx="450.908936" cy="189.579361" fx="450.908936" fy="189.579361" r="21.166656" gradientTransform="matrix(0.000000119742,-0.0537161,-0.0966889,-0.0000000698078,36.522014,43.721791)">
<stop offset="0" style="stop-color:rgb(0%,0%,0%);stop-opacity:0.313726;"/>
<stop offset="0.222222" style="stop-color:rgb(0%,0%,0%);stop-opacity:0.27451;"/>
<stop offset="1" style="stop-color:rgb(0%,0%,0%);stop-opacity:0;"/>
</radialGradient>
<radialGradient id="radial1" gradientUnits="userSpaceOnUse" cx="450.908936" cy="189.579361" fx="450.908936" fy="189.579361" r="21.166656" gradientTransform="matrix(-0.000000119742,0.0537161,0.0966889,0.0000000698078,-14.578108,-5.175142)">
<stop offset="0" style="stop-color:rgb(0%,0%,0%);stop-opacity:0.313726;"/>
<stop offset="0.222222" style="stop-color:rgb(0%,0%,0%);stop-opacity:0.27451;"/>
<stop offset="1" style="stop-color:rgb(0%,0%,0%);stop-opacity:0;"/>
</radialGradient>
<radialGradient id="radial2" gradientUnits="userSpaceOnUse" cx="450.908936" cy="189.579361" fx="450.908936" fy="189.579361" r="21.166656" gradientTransform="matrix(-0.000000119742,-0.0537161,0.0966889,-0.0000000698078,-14.578108,43.721791)">
<stop offset="0" style="stop-color:rgb(0%,0%,0%);stop-opacity:0.313726;"/>
<stop offset="0.222222" style="stop-color:rgb(0%,0%,0%);stop-opacity:0.27451;"/>
<stop offset="1" style="stop-color:rgb(0%,0%,0%);stop-opacity:0;"/>
</radialGradient>
<radialGradient id="radial3" gradientUnits="userSpaceOnUse" cx="450.908936" cy="189.579361" fx="450.908936" fy="189.579361" r="21.166656" gradientTransform="matrix(0.000000119742,0.0537161,-0.0966889,0.0000000698078,36.522013,-5.175142)">
<stop offset="0" style="stop-color:rgb(0%,0%,0%);stop-opacity:0.313726;"/>
<stop offset="0.222222" style="stop-color:rgb(0%,0%,0%);stop-opacity:0.27451;"/>
<stop offset="1" style="stop-color:rgb(0%,0%,0%);stop-opacity:0;"/>
</radialGradient>
<linearGradient id="linear1" gradientUnits="userSpaceOnUse" x1="254" y1="-168.666656" x2="254" y2="233.5" gradientTransform="matrix(0.0429729,0,0,0.0429729,0,9.239163)">
<stop offset="0" style="stop-color:rgb(95.686275%,56.078434%,69.411767%);stop-opacity:1;"/>
<stop offset="1" style="stop-color:rgb(94.117647%,38.431373%,57.254905%);stop-opacity:1;"/>
</linearGradient>
<linearGradient id="linear2" gradientUnits="userSpaceOnUse" x1="148.166687" y1="-168.666809" x2="148.166687" y2="233.499863" gradientTransform="matrix(1,0,0,1,-31.750023,0.000142415)">
<stop offset="0" style="stop-color:rgb(94.117647%,38.431373%,57.254905%);stop-opacity:1;"/>
<stop offset="1" style="stop-color:rgb(92.54902%,25.098041%,47.843137%);stop-opacity:1;"/>
</linearGradient>
<linearGradient id="linear3" gradientUnits="userSpaceOnUse" x1="148.166687" y1="-168.666809" x2="148.166687" y2="233.499863" gradientTransform="matrix(1,0,0,1,201.083313,0.000142415)">
<stop offset="0" style="stop-color:rgb(94.117647%,38.431373%,57.254905%);stop-opacity:1;"/>
<stop offset="1" style="stop-color:rgb(92.54902%,25.098041%,47.843137%);stop-opacity:1;"/>
</linearGradient>
<linearGradient id="linear4" gradientUnits="userSpaceOnUse" x1="960" y1="1115.118164" x2="960" y2="675.118103" gradientTransform="matrix(0.264583,0,0,0.264583,-116.416687,-215)">
<stop offset="0" style="stop-color:rgb(74.117649%,74.117649%,74.117649%);stop-opacity:1;"/>
<stop offset="1" style="stop-color:rgb(87.843138%,87.843138%,87.843138%);stop-opacity:1;"/>
</linearGradient>
<linearGradient id="linear5" gradientUnits="userSpaceOnUse" x1="164.041641" y1="64.166664" x2="164.041641" y2="0.666662" gradientTransform="matrix(1,0,0,1,-21.16667,42.33334)">
<stop offset="0" style="stop-color:rgb(74.117649%,74.117649%,74.117649%);stop-opacity:1;"/>
<stop offset="1" style="stop-color:rgb(87.843138%,87.843138%,87.843138%);stop-opacity:1;"/>
</linearGradient>
<linearGradient id="linear6" gradientUnits="userSpaceOnUse" x1="158.75" y1="-115.75" x2="158.75" y2="286.416656" gradientTransform="matrix(1,0,0,1,-21.16667,-52.91666)">
<stop offset="0" style="stop-color:rgb(95.686275%,56.078434%,69.411767%);stop-opacity:1;"/>
<stop offset="1" style="stop-color:rgb(94.117647%,38.431373%,57.254905%);stop-opacity:1;"/>
</linearGradient>
<linearGradient id="linear7" gradientUnits="userSpaceOnUse" x1="960" y1="1115.118164" x2="960" y2="675.118103" gradientTransform="matrix(0.264583,0,0,0.264583,116.416649,-215)">
<stop offset="0" style="stop-color:rgb(74.117649%,74.117649%,74.117649%);stop-opacity:1;"/>
<stop offset="1" style="stop-color:rgb(87.843138%,87.843138%,87.843138%);stop-opacity:1;"/>
</linearGradient>
<linearGradient id="linear8" gradientUnits="userSpaceOnUse" x1="164.041641" y1="64.166664" x2="164.041641" y2="0.666662" gradientTransform="matrix(1,0,0,1,211.666672,42.33334)">
<stop offset="0" style="stop-color:rgb(74.117649%,74.117649%,74.117649%);stop-opacity:1;"/>
<stop offset="1" style="stop-color:rgb(87.843138%,87.843138%,87.843138%);stop-opacity:1;"/>
</linearGradient>
<linearGradient id="linear9" gradientUnits="userSpaceOnUse" x1="158.75" y1="-115.75" x2="158.75" y2="286.416656" gradientTransform="matrix(1,0,0,1,211.666672,-52.91666)">
<stop offset="0" style="stop-color:rgb(95.686275%,56.078434%,69.411767%);stop-opacity:1;"/>
<stop offset="1" style="stop-color:rgb(94.117647%,38.431373%,57.254905%);stop-opacity:1;"/>
</linearGradient>
</defs>
<g id="surface1">
<path style=" stroke:none;fill-rule:nonzero;fill:rgb(0%,0%,0%);fill-opacity:0.196078;" d="M 2.730469 19.273438 C 2.226562 19.273438 1.820312 18.867188 1.820312 18.363281 L 1.820312 18.25 C 1.820312 18.753906 2.226562 19.160156 2.730469 19.160156 L 19.101562 19.160156 C 19.605469 19.160156 20.011719 18.753906 20.011719 18.25 L 20.011719 18.363281 C 20.011719 18.867188 19.605469 19.273438 19.101562 19.273438 Z M 2.730469 19.273438 "/>
<path style=" stroke:none;fill-rule:nonzero;fill:url(#linear0);" d="M 3.523438 19.273438 L 18.417969 19.273438 L 18.417969 20.183594 L 3.523438 20.183594 Z M 3.523438 19.273438 "/>
<path style=" stroke:none;fill-rule:nonzero;fill:url(#radial0);" d="M 18.417969 19.273438 L 20.238281 19.273438 L 20.238281 18.363281 L 18.417969 18.363281 Z M 18.417969 19.273438 "/>
<path style=" stroke:none;fill-rule:nonzero;fill:url(#radial1);" d="M 3.523438 19.273438 L 1.707031 19.273438 L 1.707031 20.183594 L 3.523438 20.183594 Z M 3.523438 19.273438 "/>
<path style=" stroke:none;fill-rule:nonzero;fill:url(#radial2);" d="M 3.523438 19.273438 L 1.707031 19.273438 L 1.707031 18.363281 L 3.523438 18.363281 Z M 3.523438 19.273438 "/>
<path style=" stroke:none;fill-rule:nonzero;fill:url(#radial3);" d="M 18.417969 19.273438 L 20.238281 19.273438 L 20.238281 20.183594 L 18.417969 20.183594 Z M 18.417969 19.273438 "/>
<path style=" stroke:none;fill-rule:nonzero;fill:url(#linear1);" d="M 2.5 1.992188 L 19.328125 1.992188 C 19.707031 1.992188 20.011719 2.296875 20.011719 2.671875 L 20.011719 18.589844 C 20.011719 18.96875 19.707031 19.273438 19.328125 19.273438 L 2.5 19.273438 C 2.125 19.273438 1.820312 18.96875 1.820312 18.589844 L 1.820312 2.671875 C 1.820312 2.296875 2.125 1.992188 2.5 1.992188 Z M 2.5 1.992188 "/>
<path style=" stroke:none;fill-rule:nonzero;fill:rgb(100%,100%,100%);fill-opacity:0.392157;" d="M 2.5 1.992188 C 2.125 1.992188 1.820312 2.296875 1.820312 2.671875 L 1.820312 2.902344 C 1.820312 2.523438 2.125 2.21875 2.5 2.21875 L 19.328125 2.21875 C 19.707031 2.21875 20.011719 2.523438 20.011719 2.902344 L 20.011719 2.671875 C 20.011719 2.296875 19.707031 1.992188 19.328125 1.992188 Z M 2.5 1.992188 "/>
<path style=" stroke:none;fill-rule:nonzero;fill:rgb(1.960784%,1.960784%,1.960784%);fill-opacity:0.235294;" d="M 2.5 19.273438 C 2.125 19.273438 1.820312 18.96875 1.820312 18.589844 L 1.820312 18.363281 C 1.820312 18.742188 2.125 19.046875 2.5 19.046875 L 19.328125 19.046875 C 19.707031 19.046875 20.011719 18.742188 20.011719 18.363281 L 20.011719 18.589844 C 20.011719 18.96875 19.707031 19.273438 19.328125 19.273438 Z M 2.5 19.273438 "/>
<path style=" stroke:none;fill-rule:nonzero;fill:rgb(12.941177%,12.941177%,12.941177%);fill-opacity:1;" d="M 2.5 1.925781 C 2.089844 1.925781 1.753906 2.261719 1.753906 2.671875 L 1.753906 18.589844 C 1.753906 19.003906 2.089844 19.335938 2.5 19.335938 L 19.328125 19.335938 C 19.742188 19.335938 20.074219 19.003906 20.074219 18.589844 L 20.074219 2.671875 C 20.074219 2.261719 19.742188 1.925781 19.328125 1.925781 Z M 2.5 2.054688 L 19.328125 2.054688 C 19.671875 2.054688 19.945312 2.328125 19.945312 2.671875 L 19.945312 18.589844 C 19.945312 18.933594 19.671875 19.207031 19.328125 19.207031 L 2.5 19.207031 C 2.15625 19.207031 1.882812 18.933594 1.882812 18.589844 L 1.882812 2.671875 C 1.882812 2.328125 2.15625 2.054688 2.5 2.054688 Z M 2.5 2.054688 "/>
<path style="fill-rule:nonzero;fill:url(#linear2);stroke-width:3;stroke-linecap:round;stroke-linejoin:miter;stroke:rgb(12.941177%,12.941177%,12.941177%);stroke-opacity:1;stroke-miterlimit:4;" d="M 105.808078 -62.832713 L 169.347464 -62.832713 C 175.165091 -62.832713 179.891912 -58.105892 179.891912 -52.288265 L 179.891912 106.514751 C 179.891912 112.332378 175.165091 117.059199 169.347464 117.059199 L 105.808078 117.059199 C 99.990451 117.059199 95.26363 112.332378 95.26363 106.514751 L 95.26363 -52.288265 C 95.26363 -58.105892 99.990451 -62.832713 105.808078 -62.832713 Z M 105.808078 -62.832713 " transform="matrix(0.0429729,0,0,0.0429729,0,9.239163)"/>
<path style="fill-rule:nonzero;fill:url(#linear3);stroke-width:3;stroke-linecap:round;stroke-linejoin:miter;stroke:rgb(12.941177%,12.941177%,12.941177%);stroke-opacity:1;stroke-miterlimit:4;" d="M 338.694929 -62.832713 L 402.143415 -62.832713 C 408.051942 -62.832713 412.778763 -58.105892 412.778763 -52.288265 L 412.778763 106.514751 C 412.778763 112.332378 408.051942 117.059199 402.143415 117.059199 L 338.694929 117.059199 C 332.786402 117.059199 328.059581 112.332378 328.059581 106.514751 L 328.059581 -52.288265 C 328.059581 -58.105892 332.786402 -62.832713 338.694929 -62.832713 Z M 338.694929 -62.832713 " transform="matrix(0.0429729,0,0,0.0429729,0,9.239163)"/>
<path style=" stroke:none;fill-rule:nonzero;fill:rgb(0%,0%,0%);fill-opacity:0.196078;" d="M 1.820312 10.519531 L 20.011719 10.519531 L 20.011719 10.632812 L 1.820312 10.632812 Z M 1.820312 10.519531 "/>
<path style=" stroke:none;fill-rule:nonzero;fill:rgb(90.196079%,90.196079%,90.196079%);fill-opacity:0.588235;" d="M 1.820312 10.632812 L 20.011719 10.632812 L 20.011719 10.746094 L 1.820312 10.746094 Z M 1.820312 10.632812 "/>
<path style=" stroke:none;fill-rule:nonzero;fill:rgb(12.941177%,12.941177%,12.941177%);fill-opacity:0.992157;" d="M 1.820312 10.574219 L 20.011719 10.574219 L 20.011719 10.6875 L 1.820312 10.6875 Z M 1.820312 10.574219 "/>
<path style="fill-rule:nonzero;fill:url(#linear4);stroke-width:3;stroke-linecap:round;stroke-linejoin:round;stroke:rgb(12.941177%,12.941177%,12.941177%);stroke-opacity:1;stroke-miterlimit:4;" d="M 116.443426 -36.380694 C 110.534899 -36.380694 105.808078 -31.653872 105.808078 -25.836246 L 105.808078 69.427384 C 105.808078 75.335911 110.534899 80.062732 116.443426 80.062732 L 158.712116 80.062732 C 164.620643 80.062732 169.347464 75.335911 169.347464 69.427384 L 169.347464 -25.836246 C 169.347464 -31.653872 164.620643 -36.380694 158.712116 -36.380694 Z M 119.079538 -28.472358 L 156.076005 -28.472358 C 159.075718 -28.472358 161.439129 -26.108947 161.439129 -23.109234 L 161.439129 66.791272 C 161.439129 69.700085 159.075718 72.063496 156.076005 72.063496 L 119.079538 72.063496 C 116.170724 72.063496 113.807314 69.700085 113.807314 66.791272 L 113.807314 -23.109234 C 113.807314 -26.108947 116.170724 -28.472358 119.079538 -28.472358 Z M 119.079538 -28.472358 " transform="matrix(0.0429729,0,0,0.0429729,0,9.239163)"/>
<path style="fill-rule:nonzero;fill:url(#linear5);stroke-width:3;stroke-linecap:round;stroke-linejoin:miter;stroke:rgb(12.941177%,12.941177%,12.941177%);stroke-opacity:1;stroke-miterlimit:4;" d="M 126.987873 42.975365 L 148.167669 42.975365 C 153.985295 42.975365 158.712116 47.702186 158.712116 53.610713 L 158.712116 95.879403 C 158.712116 101.78793 153.985295 106.514751 148.167669 106.514751 L 126.987873 106.514751 C 121.170247 106.514751 116.443426 101.78793 116.443426 95.879403 L 116.443426 53.610713 C 116.443426 47.702186 121.170247 42.975365 126.987873 42.975365 Z M 126.987873 42.975365 " transform="matrix(0.0429729,0,0,0.0429729,0,9.239163)"/>
<path style="fill-rule:nonzero;fill:url(#linear6);stroke-width:3;stroke-linecap:round;stroke-linejoin:miter;stroke:rgb(12.941177%,12.941177%,12.941177%);stroke-opacity:1;stroke-miterlimit:4;" d="M 126.987873 -52.288265 L 148.167669 -52.288265 C 153.985295 -52.288265 158.712116 -47.470544 158.712116 -41.652917 L 158.712116 -25.836246 C 158.712116 -19.927719 153.985295 -15.200898 148.167669 -15.200898 L 126.987873 -15.200898 C 121.170247 -15.200898 116.443426 -19.927719 116.443426 -25.836246 L 116.443426 -41.652917 C 116.443426 -47.470544 121.170247 -52.288265 126.987873 -52.288265 Z M 126.987873 -52.288265 " transform="matrix(0.0429729,0,0,0.0429729,0,9.239163)"/>
<path style="fill-rule:nonzero;fill:url(#linear7);stroke-width:3;stroke-linecap:round;stroke-linejoin:round;stroke:rgb(12.941177%,12.941177%,12.941177%);stroke-opacity:1;stroke-miterlimit:4;" d="M 349.239377 -36.380694 C 343.42175 -36.380694 338.694929 -31.653872 338.694929 -25.836246 L 338.694929 69.427384 C 338.694929 75.335911 343.42175 80.062732 349.239377 80.062732 L 391.598968 80.062732 C 397.416594 80.062732 402.143415 75.335911 402.143415 69.427384 L 402.143415 -25.836246 C 402.143415 -31.653872 397.416594 -36.380694 391.598968 -36.380694 Z M 351.875488 -28.472358 L 388.962856 -28.472358 C 391.871669 -28.472358 394.23508 -26.108947 394.23508 -23.109234 L 394.23508 66.791272 C 394.23508 69.700085 391.871669 72.063496 388.962856 72.063496 L 351.875488 72.063496 C 348.966675 72.063496 346.603265 69.700085 346.603265 66.791272 L 346.603265 -23.109234 C 346.603265 -26.108947 348.966675 -28.472358 351.875488 -28.472358 Z M 351.875488 -28.472358 " transform="matrix(0.0429729,0,0,0.0429729,0,9.239163)"/>
<path style="fill-rule:nonzero;fill:url(#linear8);stroke-width:3;stroke-linecap:round;stroke-linejoin:miter;stroke:rgb(12.941177%,12.941177%,12.941177%);stroke-opacity:1;stroke-miterlimit:4;" d="M 359.874725 42.975365 L 380.96362 42.975365 C 386.872146 42.975365 391.598968 47.702186 391.598968 53.610713 L 391.598968 95.879403 C 391.598968 101.78793 386.872146 106.514751 380.96362 106.514751 L 359.874725 106.514751 C 353.966198 106.514751 349.239377 101.78793 349.239377 95.879403 L 349.239377 53.610713 C 349.239377 47.702186 353.966198 42.975365 359.874725 42.975365 Z M 359.874725 42.975365 " transform="matrix(0.0429729,0,0,0.0429729,0,9.239163)"/>
<path style="fill-rule:nonzero;fill:url(#linear9);stroke-width:3;stroke-linecap:round;stroke-linejoin:miter;stroke:rgb(12.941177%,12.941177%,12.941177%);stroke-opacity:1;stroke-miterlimit:4;" d="M 359.874725 -52.288265 L 380.96362 -52.288265 C 386.872146 -52.288265 391.598968 -47.470544 391.598968 -41.652917 L 391.598968 -25.836246 C 391.598968 -19.927719 386.872146 -15.200898 380.96362 -15.200898 L 359.874725 -15.200898 C 353.966198 -15.200898 349.239377 -19.927719 349.239377 -25.836246 L 349.239377 -41.652917 C 349.239377 -47.470544 353.966198 -52.288265 359.874725 -52.288265 Z M 359.874725 -52.288265 " transform="matrix(0.0429729,0,0,0.0429729,0,9.239163)"/>
</g>
</svg>

<svg xmlns="http://www.w3.org/2000/svg" width="22pt" height="22pt" viewBox="0 0 22 22"><defs><linearGradient id="a" gradientUnits="userSpaceOnUse" x1="254" y1="233.5" x2="254" y2="254.667" gradientTransform="matrix(.04297 0 0 .04297 0 9.24)"><stop offset="0" stop-opacity=".275"/><stop offset="1" stop-opacity="0"/></linearGradient><radialGradient id="b" gradientUnits="userSpaceOnUse" cx="450.909" cy="189.579" fx="450.909" fy="189.579" r="21.167" gradientTransform="matrix(0 -.05372 -.09669 0 36.522 43.722)"><stop offset="0" stop-opacity=".314"/><stop offset=".222" stop-opacity=".275"/><stop offset="1" stop-opacity="0"/></radialGradient><radialGradient id="c" gradientUnits="userSpaceOnUse" cx="450.909" cy="189.579" fx="450.909" fy="189.579" r="21.167" gradientTransform="matrix(0 .05372 .09669 0 -14.578 -5.175)"><stop offset="0" stop-opacity=".314"/><stop offset=".222" stop-opacity=".275"/><stop offset="1" stop-opacity="0"/></radialGradient><radialGradient id="d" gradientUnits="userSpaceOnUse" cx="450.909" cy="189.579" fx="450.909" fy="189.579" r="21.167" gradientTransform="matrix(0 -.05372 .09669 0 -14.578 43.722)"><stop offset="0" stop-opacity=".314"/><stop offset=".222" stop-opacity=".275"/><stop offset="1" stop-opacity="0"/></radialGradient><radialGradient id="e" gradientUnits="userSpaceOnUse" cx="450.909" cy="189.579" fx="450.909" fy="189.579" r="21.167" gradientTransform="matrix(0 .05372 -.09669 0 36.522 -5.175)"><stop offset="0" stop-opacity=".314"/><stop offset=".222" stop-opacity=".275"/><stop offset="1" stop-opacity="0"/></radialGradient><linearGradient id="f" gradientUnits="userSpaceOnUse" x1="254" y1="-168.667" x2="254" y2="233.5" gradientTransform="matrix(.04297 0 0 .04297 0 9.24)"><stop offset="0" stop-color="#f48fb1"/><stop offset="1" stop-color="#f06292"/></linearGradient><linearGradient id="g" gradientUnits="userSpaceOnUse" x1="148.167" y1="-168.667" x2="148.167" y2="233.5" gradientTransform="translate(-31.75)"><stop offset="0" stop-color="#f06292"/><stop offset="1" stop-color="#ec407a"/></linearGradient><linearGradient id="h" gradientUnits="userSpaceOnUse" x1="148.167" y1="-168.667" x2="148.167" y2="233.5" gradientTransform="translate(201.083)"><stop offset="0" stop-color="#f06292"/><stop offset="1" stop-color="#ec407a"/></linearGradient><linearGradient id="i" gradientUnits="userSpaceOnUse" x1="960" y1="1115.118" x2="960" y2="675.118" gradientTransform="matrix(.26458 0 0 .26458 -116.417 -215)"><stop offset="0" stop-color="#bdbdbd"/><stop offset="1" stop-color="#e0e0e0"/></linearGradient><linearGradient id="j" gradientUnits="userSpaceOnUse" x1="164.042" y1="64.167" x2="164.042" y2=".667" gradientTransform="translate(-21.167 42.333)"><stop offset="0" stop-color="#bdbdbd"/><stop offset="1" stop-color="#e0e0e0"/></linearGradient><linearGradient id="k" gradientUnits="userSpaceOnUse" x1="158.75" y1="-115.75" x2="158.75" y2="286.417" gradientTransform="translate(-21.167 -52.917)"><stop offset="0" stop-color="#f48fb1"/><stop offset="1" stop-color="#f06292"/></linearGradient><linearGradient id="l" gradientUnits="userSpaceOnUse" x1="960" y1="1115.118" x2="960" y2="675.118" gradientTransform="matrix(.26458 0 0 .26458 116.417 -215)"><stop offset="0" stop-color="#bdbdbd"/><stop offset="1" stop-color="#e0e0e0"/></linearGradient><linearGradient id="m" gradientUnits="userSpaceOnUse" x1="164.042" y1="64.167" x2="164.042" y2=".667" gradientTransform="translate(211.667 42.333)"><stop offset="0" stop-color="#bdbdbd"/><stop offset="1" stop-color="#e0e0e0"/></linearGradient><linearGradient id="n" gradientUnits="userSpaceOnUse" x1="158.75" y1="-115.75" x2="158.75" y2="286.417" gradientTransform="translate(211.667 -52.917)"><stop offset="0" stop-color="#f48fb1"/><stop offset="1" stop-color="#f06292"/></linearGradient></defs><path d="M2.73 19.273a.909.909 0 0 1-.91-.91v-.113c0 .504.407.91.91.91h16.372c.503 0 .91-.406.91-.91v.113c0 .504-.407.91-.91.91zm0 0" fill-opacity=".196"/><path d="M3.523 19.273h14.895v.91H3.523zm0 0" fill="url(#a)"/><path d="M18.418 19.273h1.82v-.91h-1.82zm0 0" fill="url(#b)"/><path d="M3.523 19.273H1.707v.91h1.816zm0 0" fill="url(#c)"/><path d="M3.523 19.273H1.707v-.91h1.816zm0 0" fill="url(#d)"/><path d="M18.418 19.273h1.82v.91h-1.82zm0 0" fill="url(#e)"/><path d="M2.5 1.992h16.828c.379 0 .684.305.684.68V18.59a.682.682 0 0 1-.684.683H2.5a.681.681 0 0 1-.68-.683V2.672a.68.68 0 0 1 .68-.68zm0 0" fill="url(#f)"/><path d="M2.5 1.992a.68.68 0 0 0-.68.68v.23c0-.379.305-.683.68-.683h16.828c.379 0 .684.304.684.683v-.23a.681.681 0 0 0-.684-.68zm0 0" fill="#fff" fill-opacity=".392"/><path d="M2.5 19.273a.681.681 0 0 1-.68-.683v-.227c0 .38.305.684.68.684h16.828a.682.682 0 0 0 .684-.684v.227a.682.682 0 0 1-.684.683zm0 0" fill="#050505" fill-opacity=".235"/><path d="M2.5 1.926a.749.749 0 0 0-.746.746V18.59c0 .414.336.746.746.746h16.828a.744.744 0 0 0 .746-.746V2.672a.746.746 0 0 0-.746-.746zm0 .129h16.828c.344 0 .617.273.617.617V18.59a.614.614 0 0 1-.617.617H2.5a.614.614 0 0 1-.617-.617V2.672c0-.344.273-.617.617-.617zm0 0" fill="#212121"/><path d="M105.808-62.833h63.54c5.817 0 10.544 4.727 10.544 10.545v158.803c0 5.817-4.727 10.544-10.545 10.544h-63.539c-5.818 0-10.544-4.727-10.544-10.544V-52.288c0-5.818 4.726-10.545 10.544-10.545zm0 0" transform="matrix(.04297 0 0 .04297 0 9.24)" fill="url(#g)" stroke-width="3" stroke-linecap="round" stroke="#212121"/><path d="M338.695-62.833h63.448c5.909 0 10.636 4.727 10.636 10.545v158.803c0 5.817-4.727 10.544-10.636 10.544h-63.448c-5.909 0-10.635-4.727-10.635-10.544V-52.288c0-5.818 4.726-10.545 10.635-10.545zm0 0" transform="matrix(.04297 0 0 .04297 0 9.24)" fill="url(#h)" stroke-width="3" stroke-linecap="round" stroke="#212121"/><path d="M1.82 10.52h18.192v.113H1.82zm0 0" fill-opacity=".196"/><path d="M1.82 10.633h18.192v.113H1.82zm0 0" fill="#e6e6e6" fill-opacity=".588"/><path d="M1.82 10.574h18.192v.114H1.82zm0 0" fill="#212121" fill-opacity=".992"/><path d="M116.443-36.38c-5.908 0-10.635 4.726-10.635 10.544v95.263a10.591 10.591 0 0 0 10.635 10.636h42.27a10.591 10.591 0 0 0 10.634-10.636v-95.263c0-5.818-4.726-10.545-10.635-10.545zm2.637 7.908h36.996c3 0 5.363 2.363 5.363 5.363v89.9c0 2.91-2.363 5.272-5.363 5.272H119.08a5.276 5.276 0 0 1-5.273-5.272v-89.9c0-3 2.364-5.363 5.273-5.363zm0 0" transform="matrix(.04297 0 0 .04297 0 9.24)" fill="url(#i)" stroke-width="3" stroke-linecap="round" stroke-linejoin="round" stroke="#212121"/><path d="M126.988 42.975h21.18c5.817 0 10.544 4.727 10.544 10.636v42.268c0 5.909-4.727 10.636-10.544 10.636h-21.18c-5.818 0-10.545-4.727-10.545-10.636V53.611c0-5.909 4.727-10.636 10.545-10.636zm0 0" transform="matrix(.04297 0 0 .04297 0 9.24)" fill="url(#j)" stroke-width="3" stroke-linecap="round" stroke="#212121"/><path d="M126.988-52.288h21.18c5.817 0 10.544 4.817 10.544 10.635v15.817c0 5.908-4.727 10.635-10.544 10.635h-21.18c-5.818 0-10.545-4.727-10.545-10.635v-15.817c0-5.818 4.727-10.635 10.545-10.635zm0 0" transform="matrix(.04297 0 0 .04297 0 9.24)" fill="url(#k)" stroke-width="3" stroke-linecap="round" stroke="#212121"/><path d="M349.24-36.38c-5.818 0-10.545 4.726-10.545 10.544v95.263c0 5.909 4.727 10.636 10.544 10.636h42.36c5.818 0 10.544-4.727 10.544-10.636v-95.263c0-5.818-4.726-10.545-10.544-10.545zm2.635 7.908h37.088c2.909 0 5.272 2.363 5.272 5.363v89.9a5.276 5.276 0 0 1-5.272 5.272h-37.088a5.276 5.276 0 0 1-5.272-5.272v-89.9c0-3 2.364-5.363 5.272-5.363zm0 0" transform="matrix(.04297 0 0 .04297 0 9.24)" fill="url(#l)" stroke-width="3" stroke-linecap="round" stroke-linejoin="round" stroke="#212121"/><path d="M359.875 42.975h21.089a10.591 10.591 0 0 1 10.635 10.636v42.268a10.591 10.591 0 0 1-10.635 10.636h-21.09a10.591 10.591 0 0 1-10.635-10.636V53.611a10.591 10.591 0 0 1 10.636-10.636zm0 0" transform="matrix(.04297 0 0 .04297 0 9.24)" fill="url(#m)" stroke-width="3" stroke-linecap="round" stroke="#212121"/><path d="M359.875-52.288h21.089c5.908 0 10.635 4.817 10.635 10.635v15.817a10.591 10.591 0 0 1-10.635 10.635h-21.09a10.591 10.591 0 0 1-10.635-10.635v-15.817c0-5.818 4.727-10.635 10.636-10.635zm0 0" transform="matrix(.04297 0 0 .04297 0 9.24)" fill="url(#n)" stroke-width="3" stroke-linecap="round" stroke="#212121"/></svg>
